!!!Rep U0142
!!!Isim(Name): Daldalanım
!!!Yore(Region): Diyarbakır
!!!Makam: Segah
!!!Donanim(Key Signature): b-2 e-2 f#
!!!Usul: 2/4
**kern	**Dcent
*staff1	*.
=1-	=1-
*clefG2	*.
*k[f#]	*.
*M2/4	*.
16b-	50
16b-	50
8d	0
16cc	0
16cc	0
8dd	0
=2	=2
16cc	0
16cc	0
8b-	50
16.b-	50
32a	0
8g	0
=3	=3
8.b-	50
8b-	50
16a	0
16b-	50
8b-	50
=4:!	=4:!
!!linebreak:default
16r	.
32gg	0
32aa	0
16gg	0
32ff#	0
32gg	0
16ff#	0
32ee-	50
32ff#	0
16ee-	50
16dd	0
=5	=5
16r	.
32ff#	0
32gg	0
16ff#	0
32ee-	50
32ff#	0
16ee-	50
32dd	0
32ee-	50
16dd	0
16cc	0
=6	=6
16r	.
32ee-	50
32ff#	0
16ee-	50
16dd	0
32dd	0
32ee-	50
32ff#	0
32gg	0
32ff#	0
32ee-	50
32dd	0
32cc	0
=7	=7
!!linebreak:default
8b-	50
8g	0
8b-	50
8r	.
=8	=8
16b-	50
16b-	50
8dd	0
16cc	0
16cc	0
8dd	0
=9	=9
16cc	0
16cc	0
8b-	50
16.b-	50
32a	0
8g	0
=10	=10
8.b-	50
16a	0
16b-	50
16a	0
8b-	50
=11	=11
*-	*-
!! Uzun Hava Humdrum Bilgi Bankasi (Uzun Hava Humdrum Database)
!! 
!! Sertan Senturk, Parag Chordia & Erdal Tugcular
!! Georgia Tech Center for Music Technology, 2011
